src/assets/tumult.svg

<svg height="197" width="175" xmlns="http://www.w3.org/2000/svg"><path d="m0 98.5v-5.472c0-3.02 2.45-5.472 5.469-5.472h82.031v-82.084c0-3.02 2.45-5.472 5.469-5.472h49.219a5.472 5.472 0 0 1 5.468 5.472v82.084h-54.715a5.443 5.443 0 0 0 -5.441 5.444v5.5h10.938c26.977 0 48.88 21.714 49.216 48.626.257 20.83-12.868 39.028-32.255 46.62-5.868 2.296-11.528 3.227-16.962 3.224v.03h-98.437v-54.722c0-3.02 2.45-5.472 5.469-5.472h76.561a5.472 5.472 0 0 0 5.469-5.473v-32.833zm169.531-10.944a5.472 5.472 0 0 1 5.469 5.472v5.472h-27.344v-10.944z" fill-rule="evenodd"/></svg>

<svg height="197" width="175" xmlns="http://www.w3.org/2000/svg"><path d="M0 98.5v-5.472c0-3.02 2.45-5.472 5.469-5.472H87.5V5.472C87.5 2.452 89.95 0 92.969 0h49.219a5.472 5.472 0 015.468 5.472v82.084H92.941A5.443 5.443 0 0087.5 93v5.5h10.938c26.977 0 48.88 21.714 49.216 48.626.257 20.83-12.868 39.028-32.255 46.62-5.868 2.296-11.528 3.227-16.962 3.224v.03H0v-54.722c0-3.02 2.45-5.472 5.469-5.472H82.03a5.472 5.472 0 005.469-5.473V98.5zm169.531-10.944A5.472 5.472 0 01175 93.028V98.5h-27.344V87.556z" fill-rule="evenodd"/></svg>
